epam-assets/icon-sources/18/editor-table_split_cells.svg

<svg xmlns="http://www.w3.org/2000/svg" width="18" height="18" fill="none" viewBox="0 0 18 18">
  <path fill="#6C6F80" fill-rule="evenodd" d="M14.25 10.5h1.5V15H2.25v-4.5h1.5v3h10.5v-3ZM2.25 3v4.5h1.5v-3h10.5v3h1.5V3H2.25Zm6 5.25v1.5H6v1.5L3.75 9 6 6.75v1.5h2.25Zm3.75 0v-1.5L14.25 9 12 11.25v-1.5H9.75v-1.5H12Z" clip-rule="evenodd"/>
</svg>

<svg width="18" height="18" viewBox="0 0 18 18" fill="none" xmlns="http://www.w3.org/2000/svg">
<g id="18/editor-table_split_cells">
<path id="icon" fill-rule="evenodd" clip-rule="evenodd" d="M14.25 10.5H15.75V15H2.25V10.5H3.75V13.5H14.25V10.5ZM2.25 3V7.5H3.75V4.5H14.25V7.5H15.75V3H2.25ZM8.25 8.25V9.75H6V11.25L3.75 9L6 6.75V8.25H8.25ZM12 8.25V6.75L14.25 9L12 11.25V9.75H9.75V8.25H12Z" fill="#6C6F80"/>
</g>
</svg>
